suite-common/icons/assets/icons/send.svg

<svg xmlns="http://www.w3.org/2000/svg" xml:space="preserve" fill="none" viewBox="0 0 17 16">
  <path fill="#000" fill-rule="evenodd" d="M7.961 1.781a1 1 0 0 0-.155.069c-.047.024-1.138 1.1-2.426 2.391C3.757 5.869 3.025 6.622 2.989 6.7a.93.93 0 0 0-.002.596.73.73 0 0 0 .68.444c.34.002.289.045 2.106-1.77l1.65-1.648v4.634c0 5.133-.012 4.804.187 5.036.159.186.294.245.564.245s.405-.059.564-.245c.199-.232.187.097.187-5.036V4.322l1.65 1.648c1.815 1.813 1.767 1.772 2.104 1.77.097 0 .221-.02.276-.043a.9.9 0 0 0 .399-.386c.073-.166.076-.456.005-.611-.067-.147-4.68-4.779-4.845-4.865-.123-.064-.43-.094-.553-.054"/>
</svg>

<svg xmlns="http://www.w3.org/2000/svg" xml:space="preserve" fill="none" viewBox="0 0 17 16"><path d="M7.961 1.781 C 7.922 1.794,7.852 1.825,7.806 1.850 C 7.759 1.874,6.668 2.950,5.380 4.241 C 3.757 5.869,3.025 6.622,2.989 6.700 C 2.923 6.845,2.922 7.142,2.987 7.296 C 3.100 7.565,3.365 7.739,3.667 7.740 C 4.007 7.742,3.956 7.785,5.773 5.970 L 7.423 4.322 7.423 8.956 C 7.423 14.089,7.411 13.760,7.610 13.992 C 7.769 14.178,7.904 14.237,8.174 14.237 C 8.444 14.237,8.579 14.178,8.738 13.992 C 8.937 13.760,8.925 14.089,8.925 8.956 L 8.925 4.322 10.575 5.970 C 12.390 7.783,12.342 7.742,12.679 7.740 C 12.776 7.740,12.900 7.720,12.955 7.697 C 13.104 7.635,13.290 7.455,13.354 7.311 C 13.427 7.145,13.430 6.855,13.359 6.700 C 13.292 6.553,8.679 1.921,8.514 1.835 C 8.391 1.771,8.084 1.741,7.961 1.781 " stroke="none" fill-rule="evenodd" fill="black"></path></svg>
